!!!COM:	Josquin des Prez
!!!CDT:	~1450-1521/08/27
!!!OPR:	Missa Ave maris stella
!!!ONM:	4
!!!OTL:	Sanctus
!!!AGN:	Mass; Sanctus
!!!SCT:	NJE 3.1
!!!SCA:	New Josquin Edition 3.1
!!!voices: 4
!!!voices-OPR:	4
**kern	**kern	**kern	**kern
*staff4	*staff3	*staff2	*staff1
*Ivox	*Ivox	*Ivox	*Ivox
*I"Bassus	*I"Tenor	*I"Altus	*I"Superius
*I'B	*I'T	*I'A	*I'S
*>[A,B,C,D,E,C]	*>[A,B,C,D,E,C]	*>[A,B,C,D,E,C]	*>[A,B,C,D,E,C]
*>Sanctus[A]	*>Sanctus[A]	*>Sanctus[A]	*>Sanctus[A]
*>PleniSunt[B]	*>PleniSunt[B]	*>PleniSunt[B]	*>PleniSunt[B]
*>Osanna[C]	*>Osanna[C]	*>Osanna[C]	*>Osanna[C]
*>Benedictus[D]	*>Benedictus[D]	*>Benedictus[D]	*>Benedictus[D]
*>QuiVenit[E]	*>QuiVenit[E]	*>QuiVenit[E]	*>QuiVenit[E]
*clefF4	*clefGv2	*clefGv2	*clefG2
*k[b-]	*k[b-]	*k[b-]	*k[b-]
*>A	*>A	*>A	*>A
*M3/1	*M3/1	*M3/1	*M3/1
*met(O)	*met(O)	*met(O)	*met(O)
!!section: Sanctus
!!!OMD: Sanctus
=1-	=1-	=1-	=1-
0.r	0.r	2r	0.g
.	.	1g	.
.	.	2f\	.
.	.	1e	.
=2	=2	=2	=2
2r	0.r	1d	0.dd
1d	.	.	.
.	.	1r	.
2c\	.	.	.
1B-	.	1r	.
=3	=3	=3	=3
1A	0.r	2r	0ee
.	.	1c	.
1r	.	.	.
.	.	2B-\	.
1r	.	1A	1cc
=4	=4	=4	=4
2r	0.G	1G	0dd
1G	.	.	.
.	.	0g	.
2F\	.	.	.
1E	.	.	1ee
=5	=5	=5	=5
2D\	0.d	2.f\	1.ff
1d	.	.	.
.	.	8e\L	.
.	.	8d\J	.
.	.	4f\	.
.	.	4g\	.
2c\	.	2a\	2ee\
1B-	.	2f\	1dd
.	.	2g\	.
=6	=6	=6	=6
1A	0e	2r	2.cc\
.	.	1c	.
.	.	.	4b-\
1r	.	.	4a/
.	.	.	4g/
.	.	2B-\	1g
1r	1c	1A	.
.	.	.	2f#i/
=7	=7	=7	=7
2r	1d	2G/	1g
1G	.	2.B-\	.
.	2e\	.	2r
.	.	4G/	.
2F\	2f\	2A/	2dd\
1E	1g	2B-\	4ee\
.	.	.	4ff\
.	.	2G/	4gg\
.	.	.	4ee\
=8	=8	=8	=8
1D	1f	2A/	2ff\
.	.	2B-\	2.dd\
2r	2g\	2G/	.
.	.	.	4cc\
1G	2d\	2.B-\	4b-\
.	.	.	4a/
.	2e\	.	4g/
.	.	4G/	4b-\
2F\	2f\	2A/	2a/
=9	=9	=9	=9
4E\	2.g\	2B-\	2g/
4D\	.	.	.
1G	.	2G/	2dd\
.	4f\	.	.
.	4e\	2B-\	2ee\
.	4d\	.	.
2F\	1d	2A/	2ff\
1E	.	2B-\	2gg\
.	2c#i\	2G/	2ee\
=10	=10	=10	=10
1D	0d	2A/	0.ff
.	.	2.B-\	.
1.B-	.	.	.
.	.	4c\	.
.	.	4d\	.
.	.	4e\	.
.	[1d	2f\	.
2B-\	.	2B-\	.
=11	=11	=11	=11
2B-\	2d\]	2f\	2r
2.G\	2d\	2g\	1b-
.	1d	2.G/	.
4A\	.	.	.
4B-\	.	.	2b-\
4G\	.	4A/	.
2d\	1G	4B-\	1b-
.	.	4G/	.
2G\	.	2g\	.
=12	=12	=12	=12
2c\	0.A	2e\	2.cc\
2.F\	.	2f\	.
.	.	.	4a/
.	.	2.F/	0a
4G\	.	.	.
4A\	.	.	.
4F\	.	4G/	.
2c\	.	4A/	.
.	.	4F/	.
2F\	.	[2c\	.
=13	=13	=13	=13
2r	0c	4c\]	2r
.	.	4d\	.
2.C/	.	4e\	2g/
.	.	4c\	.
.	.	1e	2.g/
4D\	.	.	.
4E\	.	.	.
4C/	.	.	4a/
2G\	1B-	1d	4b-\
.	.	.	4g/
[2D\	.	.	[2dd\
=14	=14	=14	=14
4D\]	1A	1f	4dd\]
4E\	.	.	4cc\
4F\	.	.	2a/
4D\	.	.	.
2A\	0c	2e\	2r
2.F\	.	2.f\	2.a/
4G\	.	4e\	4b-\
4A\	.	2c\	2cc\
4F\	.	.	.
=15	=15	=15	=15
2B-\	[0.B-	0d	2f/
2.BB-/	.	.	2.b-\
4C/	.	.	4a/
4D\	.	.	2f/
4BB-/	.	.	.
2E-i\	.	2G/	2g/
2D\	.	2d\	2f/
=16	=16	=16	=16
2r	0B-]	2G/	2g/
2.BB-/	.	2d\	2f/
.	.	2r	2r
4C/	.	.	.
4D\	.	1d	2f/
4BB-/	.	.	.
1E-i	1G	.	4g/
.	.	.	4f/
.	.	2c\	4g/
.	.	.	4e/
=17	=17	=17	=17
[0.D	0A	2d\	1f
.	.	2.F/	.
.	.	.	2r
.	.	4G/	.
.	.	4A/	2.f/
.	.	4F/	.
.	2r	2B-\	.
.	.	.	4g/
.	[2F/	2A/	4a/
.	.	.	4f/
=18	=18	=18	=18
0.D_	4F/]	2r	2b-\
.	4G/	.	.
.	4A/	2.F/	1a
.	4F/	.	.
.	2B-\	.	.
.	.	4G/	.
.	2A/	4A/	2.f/
.	.	4F/	.
.	2r	2B-\	.
.	.	.	4g/
.	[2F/	2A/	4a/
.	.	.	4f/
=19	=19	=19	=19
0.D]	4F/]	0.d	2b-\
.	4G/	.	.
.	2A/	.	2.a/
.	2F/	.	.
.	.	.	8g/L
.	.	.	8a/J
.	2B-\	.	2.g/
.	1A	.	.
.	.	.	4f#i/
.	.	.	4f#i/
.	.	.	4e/
=20	=20	=20	=20
0.Gl	0.Gl	0.dl	0.gl
!!LO:LB:i:g=z
=21||	=21||	=21||	=21||
*>B	*>B	*>B	*>B
!!section: Pleni sunt
!!!OMD: Pleni sunt
*clefF4	*clefGv2	*clefGv2	*clefG2
*k[b-]	*k[b-]	*k[b-]	*k[b-]
*M2/1	*M2/1	*M2/1	*M2/1
*met(C|)	*met(C|)	*met(C|)	*met(C|)
[0d	0r	0r	0r
=22	=22	=22	=22
1d]	0r	0r	0r
1d	.	.	.
=23	=23	=23	=23
1c	0r	[0g	0r
2B-\	.	.	.
[2c\	.	.	.
=24	=24	=24	=24
4c\]	0r	1g]	0r
4B-\	.	.	.
2G\	.	.	.
2B-\	.	1g	.
2c\	.	.	.
=25	=25	=25	=25
2.A\	0r	1f	0r
4B-\	.	.	.
2c\	.	2e\	.
[2F\	.	[2f\	.
=26	=26	=26	=26
4F\]	0r	4f\]	0r
4G\	.	4e\	.
4A\	.	2c\	.
4B-\	.	.	.
2c\	.	2e\	.
2A\	.	2f\	.
=27	=27	=27	=27
[0B-	0r	2d\	[0dd
.	.	2g\	.
.	.	2f\	.
.	.	[2g\	.
=28	=28	=28	=28
0B-]	0r	4g\]	1dd]
.	.	4f\	.
.	.	2d\	.
.	.	2f\	1dd
.	.	2g\	.
=29	=29	=29	=29
0r	0r	2.e\	1cc
.	.	4f\	.
.	.	2g\	2b-\
.	.	[2c\	[2cc\
=30	=30	=30	=30
0r	0r	4c\]	4cc\]
.	.	4d\	4b-\
.	.	4e\	2g/
.	.	4f\	.
.	.	2g\	2b-\
.	.	2e\	2cc\
=31	=31	=31	=31
0r	0r	2.f\	2.a/
.	.	4e\	4b-\
.	.	2c\	2cc\
.	.	[2d\	[2f/
=32	=32	=32	=32
0r	0r	4d\]	4f/]
.	.	4e\	4g/
.	.	4f\	4a/
.	.	4d\	4b-\
.	.	2e\	2cc\
.	.	2f\	2a/
=33	=33	=33	=33
0r	0r	2.g\	2.b-\
.	.	4f\	4cc\
.	.	2d\	2dd\
.	.	[2e\	[2g/
=34	=34	=34	=34
0r	0r	4e\]	4g/]
.	.	4f\	4a/
.	.	4g\	4b-\
.	.	4e\	4cc\
.	.	2f\	2dd\
.	.	2g\	2b-\
=35	=35	=35	=35
[0A	0r	2e\	[0cc
.	.	2a\	.
.	.	2r	.
.	.	2A/	.
=36	=36	=36	=36
1A]	0r	2.c\	0cc]
.	.	4d\	.
1A	.	2e\	.
.	.	2f\	.
=37	=37	=37	=37
1G	0r	2g\	0r
.	.	2d\	.
2F\	.	2r	.
[2G\	.	2d\	.
=38	=38	=38	=38
4G\]	0r	2e\	0r
4F\	.	.	.
2D\	.	1f	.
2F\	.	.	.
2G\	.	4e\	.
.	.	4d\	.
=39	=39	=39	=39
2.E\	0r	2.c\	0r
4F\	.	4A/	.
2G\	.	2B-\	.
[2C/	.	2c\	.
=40	=40	=40	=40
4C/]	0r	2.G/	0r
4D\	.	.	.
4E\	.	.	.
4F\	.	4A/	.
2G\	.	2B-\	.
2E\	.	[2c\	.
=41	=41	=41	=41
2.F\	0r	4c\]	0r
.	.	4A/	.
.	.	2d\	.
4G\	.	.	.
2A\	.	2c\	.
[2D\	.	2d\	.
=42	=42	=42	=42
4D\]	0r	2.A/	0r
4E\	.	.	.
4F\	.	.	.
4G\	.	4B-\	.
2A\	.	2c\	.
2F\	.	[2d\	.
=43	=43	=43	=43
0G	0r	4d\]	2r
.	.	4G/	.
.	.	2G/	1b-
.	.	1g	.
.	.	.	4a/
.	.	.	4g/
=44	=44	=44	=44
0D	0r	2r	2b-\
.	.	1f	2a/
.	.	.	1dd
.	.	4e\	.
.	.	4d\	.
=45	=45	=45	=45
0r	0r	2f\	1cc
.	.	2e\	.
.	.	[1a	2r
.	.	.	[2cc\
=46	=46	=46	=46
0r	0r	1a]	4cc\]
.	.	.	4b-\
.	.	.	4cc\
.	.	.	4a/
.	.	1g	2b-\
.	.	.	2g/
=47	=47	=47	=47
0r	0r	2r	2a/
.	.	2.g\	2.b-\
.	.	4f\	4a/
.	.	4g\	4b-\
.	.	4e\	4g/
=48	=48	=48	=48
0r	0r	2f\	2a/
.	.	2d\	2f/
.	.	2e\	2g/
.	.	[2f\	[2a/
=49	=49	=49	=49
0r	0r	4f\]	4a/]
.	.	4e\	4g/
.	.	4f\	4a/
.	.	4d\	4b-\
.	.	1e	4cc\
.	.	.	4b-\
.	.	.	4a/
.	.	.	4g/
=50	=50	=50	=50
2r	0r	0d	1f
1B-	.	.	.
.	.	.	2r
4A\	.	.	2f/
4G\	.	.	.
=51	=51	=51	=51
2B-\	0r	0r	2g/
2A\	.	.	2.a/
1d	.	.	.
.	.	.	4g/
.	.	.	4a/
.	.	.	4b-\
=52	=52	=52	=52
1c	0r	0r	2.cc\
.	.	.	4b-\
2r	.	.	1g
[2c\	.	.	.
=53	=53	=53	=53
4c\]	0r	2r	0r
4B-\	.	.	.
4c\	.	2c\	.
4A\	.	.	.
2B-\	.	2d\	.
2G\	.	2e\	.
=54	=54	=54	=54
2A\	0r	2.f\	0r
2.B-\	.	.	.
.	.	4e\	.
.	.	2f\	.
4A\	.	.	.
4B-\	.	2g\	.
4G\	.	.	.
=55	=55	=55	=55
2A\	0r	2c\	0r
2F\	.	2d\	.
2G\	.	2e\	.
2A\	.	[2f\	.
=56	=56	=56	=56
2.B-\	0r	4f\]	0r
.	.	4e\	.
.	.	2f\	.
4A\	.	.	.
2B-\	.	2g\	.
2c\	.	2e\	.
=57	=57	=57	=57
2F\	0r	1f	2r
2D\	.	.	2f/
2E\	.	2r	2g/
2F\	.	2f\	2a/
=58	=58	=58	=58
2.G\	0r	2e\	2.b-\
.	.	1d	.
4F\	.	.	4a/
2G\	.	.	2b-\
2A\	.	2c#i\	2cc\
=59	=59	=59	=59
1D	0r	[0d	1f
[1G	.	.	[1b-
=60	=60	=60	=60
2G\]	0r	0d]	2b-\]
2G\	.	.	2b-\
2.G\	.	.	2.b-\
4F\	.	.	4a/
=61	=61	=61	=61
2B-\	0r	0r	2dd\
2.A\	.	.	2.cc\
4G\	.	.	4b-\
4F\	.	.	4a/
4E\	.	.	4g/
=62	=62	=62	=62
0D	0r	1r	0f
.	.	[1f	.
=63	=63	=63	=63
0r	0r	2f\]	2r
.	.	2f\	2cc\
.	.	2.f\	2dd\
.	.	.	2cc\
.	.	4e\	.
=64	=64	=64	=64
0r	0r	2a\	2ff\
.	.	2.g\	2.ee\
.	.	4f\	4dd\
.	.	4e\	4gg\
.	.	4d\	4ff\
=65	=65	=65	=65
0r	0r	2c\	4ee\
.	.	.	4dd\
.	.	2d\	1dd
.	.	1e	.
.	.	.	2cc#i\
=66	=66	=66	=66
1r	0r	1d	0dd
[1B-	.	2r	.
.	.	[2G/	.
=67	=67	=67	=67
2B-\]	0r	4G/]	0r
.	.	4A/	.
2B-\	.	4B-\	.
.	.	4c\	.
2.B-\	.	2.d\	.
4A\	.	4c\	.
=68	=68	=68	=68
2d\	0r	2f\	0r
2.c\	.	2.e\	.
4B-\	.	4d\	.
4A\	.	[2a\	.
4G\	.	.	.
=69	=69	=69	=69
2F\	0r	4a\]	0r
.	.	4g\	.
2G\	.	1g	.
1A	.	.	.
.	.	2f#i\	.
=70	=70	=70	=70
0G	0r	1.g	1r
.	.	.	[1b-
.	.	4f\	.
.	.	4e\	.
=71	=71	=71	=71
0r	0r	2d\	2b-\]
.	.	2G/	2b-\
.	.	2.d\	2.b-\
.	.	4c\	4a/
=72	=72	=72	=72
0r	0r	2f\	2dd\
.	.	2.e\	2.cc\
.	.	4d\	4b-\
.	.	4c\	4a/
.	.	4B-\	4g/
=73	=73	=73	=73
1r	0r	2A/	2.f/
.	.	2d\	.
.	.	.	4g/
[1F	.	2c\	4a/
.	.	.	4b-\
.	.	2A/	2cc\
=74	=74	=74	=74
2F\]	0r	2c\	2a/
2F\	.	2F/	2.cc\
2.F\	.	2r	.
.	.	.	4b-\
.	.	[2c\	4a/
4E\	.	.	4g/
=75	=75	=75	=75
2A\	0r	4c\]	2cc\
.	.	4A/	.
2.G\	.	2d\	2.b-\
.	.	2B-\	.
4F\	.	.	4a/
4E-i\	.	[2e-i\	[2cc\
4D\	.	.	.
=76	=76	=76	=76
2C/	0r	4e-\]	2cc\]
.	.	4d\	.
2D\	.	2.d\	1b-
1E-i	.	.	.
.	.	4c\	.
.	.	[2g\	4a/
.	.	.	4g/
=77	=77	=77	=77
[0Dl	0r	4g\]	2b-\
.	.	4f\	.
.	.	2.f\	2.a/
.	.	4e\	4g/
.	.	[2d\	4f/
.	.	.	4e/
=78	=78	=78	=78
0D_	0r	4d\]	[0fl
.	.	4c\	.
.	.	2A/	.
.	.	1B-	.
=79	=79	=79	=79
0D]	0r	0Al	0f]
!!LO:PB:i:g=z
=80||	=80||	=80||	=80||
*>C	*>C	*>C	*>C
!!section: Osanna
!!!OMD: Osanna
*clefF4	*clefGv2	*clefGv2	*clefG2
*k[b-]	*k[b-]	*k[b-]	*k[b-]
*M2/1	*M2/1	*M2/1	*M2/1
*met(C|)	*met(C|)	*met(C|)	*met(C|)
1.B-	[0G	1r	0r
.	.	[1B-	.
2c\	.	.	.
=81	=81	=81	=81
1d	0G]	2B-\]	1r
.	.	2c\	.
[1G	.	1d	[1b-
=82	=82	=82	=82
2G\]	0d	0G	2b-\]
2A\	.	.	2cc\
1B-	.	.	1dd
=83	=83	=83	=83
0c	[0e	1r	0g
.	.	[1c	.
=84	=84	=84	=84
1.A	0e]	2c\]	1r
.	.	4B-\	.
.	.	4A/	.
.	.	[1A	[1cc
2B-\	.	.	.
=85	=85	=85	=85
1c	0r	2A/]	2cc\]
.	.	2B-\	4b-\
.	.	.	4a/
[1F	.	1c	[1a
=86	=86	=86	=86
2F\]	0c	0F	2a/]
2G\	.	.	2b-\
1A	.	.	1cc
=87	=87	=87	=87
0B-	0d	1r	1.f
.	.	[1f	.
.	.	.	2g/
=88	=88	=88	=88
1.F	0f	2f\]	[0a
.	.	2e\	.
.	.	1d	.
2G\	.	.	.
=89	=89	=89	=89
1A	1e	1c	0a]
1D	1f	1d	.
=90	=90	=90	=90
1.E	[0g	2r	1r
.	.	2G/	.
.	.	1c	[1g
2F\	.	.	.
=91	=91	=91	=91
0G	0g_	1B-	1g]
.	.	1G	1dd
=92	=92	=92	=92
1.E	0g_	2r	2ee\
.	.	2G/	1gg
.	.	1c	.
2F\	.	.	2ff\
=93	=93	=93	=93
1G	0g]	1B-	1dd
1C	.	1c	1ee
=94	=94	=94	=94
1.D	[0f	2r	1.ff
.	.	2F/	.
.	.	1B-	.
2E\	.	.	4ee\
.	.	.	4dd\
=95	=95	=95	=95
1F	1f]	2A/	2.cc\
.	.	2F/	.
.	.	.	4dd\
1C	1e	1c	4ee\
.	.	.	4ff\
.	.	.	2gg\
=96	=96	=96	=96
1.D	0d	1A	2ff\
.	.	.	1dd
.	.	[1f	.
2E\	.	.	4cc\
.	.	.	4b-\
=97	=97	=97	=97
[0F	[0c	2f\]	2a/
.	.	4e\	4f/
.	.	4d\	4g/
.	.	2c\	4a/
.	.	.	4b-\
.	.	2F/	[2cc\
=98	=98	=98	=98
0F]	0c]	2A/	4cc\]
.	.	.	4b-\
.	.	2B-\	1b-
.	.	1c	.
.	.	.	2a/
=99	=99	=99	=99
*M2/1	*	*	*
*met(3)	*	*	*
3%2.B-	0d	1B-	1b-
3c\	.	1G	[1dd
3%2d	.	.	.
=100	=100	=100	=100
3%2.G	1d	1g	2dd\]
.	.	.	2b-\
3A\	1G	2r	1dd
3%2B-	.	.	.
.	.	2g\	.
=101	=101	=101	=101
3%4c	0A	2.e\	1.cc
.	.	4c\	.
.	.	[1c	.
[3%2A	.	.	.
.	.	.	2a/
=102	=102	=102	=102
3A\]	0c	2c\]	1a
3B-\	.	.	.
.	.	2A/	.
3%2c	.	.	.
.	.	1A	2r
3%2F	.	.	.
.	.	.	2a/
=103	=103	=103	=103
*	*	*M2/1	*
*	*	*met(3)	*
3%2.G	1B-	3%2d	1.b-
.	.	3%2G	.
3A\	1G	.	.
3%2B-	.	3%2d	.
.	.	.	2g/
=104	=104	=104	=104
3%2.E-	0B-	3%4e-	1g
3F\	.	.	2r
3%2G	.	3%2d	.
.	.	.	[2g/
=105	=105	=105	=105
3%2C	0A	3%2e-i	2g/]
.	.	.	4f#i/
3%4D	.	3%4d	.
.	.	.	4e/
.	.	.	1f#i
=106	=106	=106	=106
*M2/1	*	*M2/1	*
*met(C|)	*	*met(C|)	*
1r	0G	2.B-\	1g
.	.	4c\	.
2.B-\	.	2d\	2r
.	.	[2G/	[2dd\
4c\	.	.	.
=107	=107	=107	=107
2d\	1r	4G/]	1dd]
.	.	4A/	.
2.G\	.	4B-\	.
.	.	4c\	.
.	1B-	2d\	2b-\
4A\	.	.	.
2B-\	.	2G/	2dd\
=108	=108	=108	=108
2c\	1A	2A/	1.cc
2.F\	.	2.a\	.
.	1c	.	.
4G\	.	4g\	.
2A\	.	2e\	2a/
=109	=109	=109	=109
2.D\	1d	1.f	1a
4E\	.	.	.
2F\	1d	.	2r
2G\	.	2B-\	[2b-\
=110	=110	=110	=110
2.B-\	1.G	3.B-\V	2b-\]
.	.	6c\	4a/
.	.	3d\Z	.
4c\	.	.	4g/
2d\	.	3G/V	2b-\
.	.	3B-\	.
[2G\	[2B-\	.	[2dd\
.	.	3c\Z	.
=111	=111	=111	=111
2G\]	2B-\]	3d\V	2dd\]
.	.	3e\	.
2A\	2A/	.	2cc\
.	.	3f\Z	.
1B-	1G	3g\V	1b-
.	.	3d\	.
.	.	3e\Z	.
=112	=112	=112	=112
1c	1F	2f\	1a
.	.	1c	.
2.F\	2.A/	.	2r
.	.	2f\	2a/
4G\	4B-\	.	.
=113	=113	=113	=113
2A\	2c\	2e\	2.a/
2.D\	2.d\	2f\	.
.	.	.	4f/
.	.	2r	2f/
4E\	4c\	.	.
2F\	2A/	2f\	2cc\
=114	=114	=114	=114
2G\	2B-\	2d\	2b-\
2.F\	2c\	2.f\	2.a/
.	[1A	.	.
4G\	.	4e\	4g/
2A\	.	2c\	2e/
=115	=115	=115	=115
1D	1A]	2d\	4f/
.	.	.	4g/
.	.	2A/	4a/
.	.	.	4f/
2E\	2G/	2r	2g/
2F\	2A/	2f\	2cc\
=116	=116	=116	=116
2G\	2B-\	2d\	2b-\
2.F\	2c\	2.f\	2.a/
.	[1A	.	.
4G\	.	4e\	4g/
2A\	.	2c\	2e/
=117	=117	=117	=117
1D	1A]	2d\	1f
.	.	2f\	.
2.E\	[1Gl	1e	[1gl
4F\	.	.	.
=118	=118	=118	=118
0Gl	0G]	0dl	0g]
!!LO:TX:rj:i:t=fine
!!LO:LB:i:g=z
=119||	=119||	=119||	=119||
*>D	*>D	*>D	*>D
!!section: Benedictus
!!!OMD: Benedictus
*clefF4	*clefGv2	*clefGv2	*clefG2
*k[b-]	*k[b-]	*k[b-]	*k[b-]
*M2/1	*M2/1	*M2/1	*M2/1
*met(C|)	*met(C|)	*met(C|)	*met(C|)
0r	0r	[0g	1dd
.	.	.	2ee-i\
.	.	.	[2dd\
=120	=120	=120	=120
0r	0r	0g]	4dd\]
.	.	.	4cc\
.	.	.	4dd\
.	.	.	4b-\
.	.	.	2ee-i\
.	.	.	[2dd\
=121	=121	=121	=121
0r	0r	1.f	2dd\]
.	.	.	4cc\
.	.	.	4b-\
.	.	.	1a
.	.	2g\	.
=122	=122	=122	=122
0r	0r	1a	[0d\
.	.	2b-\	.
.	.	[2a\	.
=123	=123	=123	=123
0r	0r	4a\]	0d\]
.	.	4g\	.
.	.	4a\	.
.	.	4f\	.
.	.	2b-\	.
.	.	[2a\	.
=124	=124	=124	=124
0r	0r	2a\]	0c
.	.	4g\	.
.	.	4f\	.
.	.	1e	.
=125	=125	=125	=125
0r	0r	[0d	1a
.	.	.	2b-\
.	.	.	[2a/
=126	=126	=126	=126
0r	0r	0d]	4a/]
.	.	.	4g/
.	.	.	4a/
.	.	.	4f/
.	.	.	2b-\
.	.	.	[2a/
=127	=127	=127	=127
0r	0r	0c	2a/]
.	.	.	4g/
.	.	.	4f/
.	.	.	2e/
.	.	.	[2a/
=128	=128	=128	=128
0r	0r	1d	2a/]
.	.	.	2b-\
.	.	2e-i\	2g/
.	.	[2d\	2b-\
=129	=129	=129	=129
0r	0r	4d\]	2a/
.	.	4c\	.
.	.	4d\	2b-\
.	.	4B-\	.
.	.	2e-i\	2g/
.	.	[2d\	[2b-\
=130	=130	=130	=130
0r	0r	2d\]	2b-\]
.	.	4c\	4a/
.	.	4B-\	4g/
.	.	1A	2f/
.	.	.	[2cc\
=131	=131	=131	=131
0r	0r	2r	4cc\]
.	.	.	4b-\
.	.	2a\	2cc\
.	.	2b-\	2dd\
.	.	[2a\	2ff\
=132	=132	=132	=132
0r	0r	4a\]	2ee\
.	.	4g\	.
.	.	4a\	2ff\
.	.	4f\	.
.	.	2b-\	2dd\
.	.	[2a\	[2ff\
=133	=133	=133	=133
0r	0r	2a\]	2ff\]
.	.	4g\	4ee\
.	.	4f\	4dd\
.	.	1e	4cc#i\
.	.	.	4dd\
.	.	.	4ee\
.	.	.	4cc#i\
=134	=134	=134	=134
0r	0r	0dl	0ddl
!!LO:LB:i:g=z
=135||	=135||	=135||	=135||
*>E	*>E	*>E	*>E
!!section: Qui venit
!!!OMD: Qui venit
*clefF4	*clefGv2	*clefGv2	*clefG2
*k[b-]	*k[b-]	*k[b-]	*k[b-]
*M2/1	*M2/1	*M2/1	*M2/1
*met(C|)	*met(C|)	*met(C|)	*met(C|)
1G	0r	[0d	0r
2F\	.	.	.
[2G\	.	.	.
=136	=136	=136	=136
4G\]	0r	0d]	0r
4A\	.	.	.
2B-\	.	.	.
2G\	.	.	.
[2B-\	.	.	.
=137	=137	=137	=137
2B-\]	0r	1d	0r
4A\	.	.	.
4G\	.	.	.
2A\	.	2c\	.
2D\	.	[2d\	.
=138	=138	=138	=138
1D	0r	4d\]	0r
.	.	4e\	.
.	.	2f\	.
1r	.	2d\	.
.	.	[2f\	.
=139	=139	=139	=139
1D	0r	2f\]	0r
.	.	4e\	.
.	.	4d\	.
2C/	.	2e\	.
[2D\	.	2A/	.
=140	=140	=140	=140
4D\]	0r	1A	0r
4E\	.	.	.
2F\	.	.	.
2D\	.	1r	.
[2F\	.	.	.
=141	=141	=141	=141
2F\]	0r	1A	0r
4E\	.	.	.
4D\	.	.	.
2E\	.	2G/	.
2D\	.	[2A/	.
=142	=142	=142	=142
1A	0r	4A/]	0r
.	.	4B-\	.
.	.	2c\	.
1r	.	2A/	.
.	.	[2c\	.
=143	=143	=143	=143
1A	0r	2c\]	0r
.	.	4B-\	.
.	.	4A/	.
2G\	.	2B-\	.
[2A\	.	2A/	.
=144	=144	=144	=144
4A\]	0r	2.c\	0r
4B-\	.	.	.
2c\	.	.	.
.	.	4F/	.
2A\	.	1F	.
[2c\	.	.	.
=145	=145	=145	=145
2c\]	0r	2r	0r
4B-\	.	2c\	.
4A\	.	.	.
2B-\	.	2d\	.
2A\	.	2f\	.
=146	=146	=146	=146
2.c\	0r	2e\	0r
.	.	2A/	.
4F\	.	.	.
2F\	.	2.c\	.
[2A\	.	.	.
.	.	4F/	.
=147	=147	=147	=147
4A\]	0r	2F/	0r
4D\	.	.	.
2D\	.	2.f\	.
2.d\	.	.	.
.	.	4B-\	.
.	.	2B-\	.
4G\	.	.	.
=148	=148	=148	=148
2G\	0r	2d\	0r
2d\	.	2G/	.
4G\	.	2.d\	.
4A\	.	.	.
4B-\	.	.	.
4c\	.	4e\	.
=149	=149	=149	=149
2A\	0r	4f\	0r
.	.	4g\	.
4G\	.	2e\	.
4A\	.	.	.
4B-\	.	4d\	.
4c\	.	4e\	.
2A\	.	4f\	.
.	.	4g\	.
=150	=150	=150	=150
2G\	0r	4e\	0r
.	.	4d\	.
2F\	.	2f\	.
2G\	.	4e\	.
.	.	4d\	.
2F\	.	[2a\	.
=151	=151	=151	=151
1G	0r	4a\]	0r
.	.	4g\	.
.	.	1g	.
1A	.	.	.
.	.	2f#i\	.
=152	=152	=152	=152
0Gl	0r	0gl	0r
!!LO:TX:i:Y=40:rj:t=Osanna ut supra
=||	=||	=||	=||
*-	*-	*-	*-
!!!RDF**kern: %=rational rhythm
!!!rscale-alt: 1/4
!!!RDF**kern: l=long note in original notation
!!!RDF**kern: i=editorial accidental
!!!ENC: Jesse Rodin; Victoria Chang 2011/04/01/
!!!END: 2011/04/01/
!!!EED:	Jesse Rodin
!!!EEV: 2013/10/25/
!!attribution-level@Jos: 1 (secure)
!!!ONB:	Translated from MusicXML and edited on 2011/04/06/ by Craig Sapp
!!muse2ps: T^@{OPR}^u^@{ONM}{. }@{OTL}^C^@{COM}\n@{SCT}^i2I100v85,90,85,150c80Q16
